fs/production_checkmark_24_filled.svg

<svg viewBox="0 0 24 24" fill="none" xmlns="http://www.w3.org/2000/svg" height="1em" width="1em">
  <path d="M6.25 3.5C5.2835 3.5 4.5 4.2835 4.5 5.25V7.75C4.5 8.7165 5.2835 9.5 6.25 9.5H8.75C9.7165 9.5 10.5 8.7165 10.5 7.75V5.25C10.5 4.2835 9.7165 3.5 8.75 3.5H6.25ZM13.5 5.25V7.75C13.5 8.7165 14.2835 9.5 15.25 9.5H17.75C18.7165 9.5 19.5 8.7165 19.5 7.75V5.25C19.5 4.2835 18.7165 3.5 17.75 3.5H15.25C14.2835 3.5 13.5 4.2835 13.5 5.25ZM15.25 5H17.75C17.8881 5 18 5.11193 18 5.25V7.75C18 7.88807 17.8881 8 17.75 8H15.25C15.1119 8 15 7.88807 15 7.75V5.25C15 5.11193 15.1119 5 15.25 5ZM6.5 11.5C4.01472 11.5 2 13.5147 2 16C2 18.4853 4.01472 20.5 6.5 20.5H11.7322C11.2644 19.6025 11 18.5821 11 17.5C11 17.3749 11.0035 17.2507 11.0105 17.1274C10.6975 16.8525 10.5 16.4493 10.5 16C10.5 15.2678 11.0247 14.6581 11.7185 14.5264C12.4175 13.1702 13.5795 12.0918 14.9956 11.5H6.5ZM7 17.5C6.17157 17.5 5.5 16.8284 5.5 16C5.5 15.1716 6.17157 14.5 7 14.5C7.82843 14.5 8.5 15.1716 8.5 16C8.5 16.8284 7.82843 17.5 7 17.5ZM23 17.5C23 20.5376 20.5376 23 17.5 23C14.4624 23 12 20.5376 12 17.5C12 14.4624 14.4624 12 17.5 12C20.5376 12 23 14.4624 23 17.5ZM20.8536 15.1464C20.6583 14.9512 20.3417 14.9512 20.1464 15.1464L16.5 18.7929L14.8536 17.1464C14.6583 16.9512 14.3417 16.9512 14.1464 17.1464C13.9512 17.3417 13.9512 17.6583 14.1464 17.8536L16.1464 19.8536C16.3417 20.0488 16.6583 20.0488 16.8536 19.8536L20.8536 15.8536C21.0488 15.6583 21.0488 15.3417 20.8536 15.1464Z" fill="#212121"/>
</svg>

<svg viewBox="0 0 24 24" fill="none" xmlns="http://www.w3.org/2000/svg" height="1em" width="1em">
  <path d="M6.25 3.5A1.75 1.75 0 0 0 4.5 5.25v2.5c0 .966.784 1.75 1.75 1.75h2.5a1.75 1.75 0 0 0 1.75-1.75v-2.5A1.75 1.75 0 0 0 8.75 3.5h-2.5Zm7.25 1.75v2.5c0 .966.784 1.75 1.75 1.75h2.5a1.75 1.75 0 0 0 1.75-1.75v-2.5a1.75 1.75 0 0 0-1.75-1.75h-2.5a1.75 1.75 0 0 0-1.75 1.75ZM15.25 5h2.5a.25.25 0 0 1 .25.25v2.5a.25.25 0 0 1-.25.25h-2.5a.25.25 0 0 1-.25-.25v-2.5a.25.25 0 0 1 .25-.25ZM6.5 11.5a4.5 4.5 0 1 0 0 9h5.232a6.472 6.472 0 0 1-.721-3.373 1.5 1.5 0 0 1 .708-2.601 6.525 6.525 0 0 1 3.277-3.026H6.5Zm.5 6a1.5 1.5 0 1 1 0-3 1.5 1.5 0 0 1 0 3Zm16 0a5.5 5.5 0 1 1-11 0 5.5 5.5 0 0 1 11 0Zm-2.146-2.354a.5.5 0 0 0-.708 0L16.5 18.793l-1.646-1.647a.5.5 0 0 0-.708.708l2 2a.5.5 0 0 0 .708 0l4-4a.5.5 0 0 0 0-.708Z" fill="#212121"/>
</svg>
